X:37
T:Gan Ainm
R:Jig
S:Connie Connel, Cork and Denis McMahon, Kerry (fiddles)
D:"The Pure Drop"
M:6/8
Z:Bernie Stocks
K:G
|: ~G3 GAB | dBd g2d | {e}dBG GAB | dBG FGA | ~G3 GAB | dBd g2d | 
Bcd ecA |1 GAF G2D :|2 GAF GBd || ~g3 fed | efg d2g | {a}gdB GAB | 
dBG FGA | ~g3 fed | efg d2c | Bcd ecA | GAF GBd | ~g3 fed | efg d2g | 
{a}gdB GAB | dBG FGA | ~B3 ~c3 | ~d3 g2d | Bcd ecA | GAF G2D ||

